Numix-Light/16/status/indicator-keyboard-Sk.svg

<?xml version="1.0" encoding="UTF-8" standalone="no"?>
<svg
   xmlns:dc="http://purl.org/dc/elements/1.1/"
   xmlns:cc="http://creativecommons.org/ns#"
   xmlns:rdf="http://www.w3.org/1999/02/22-rdf-syntax-ns#"
   xmlns:svg="http://www.w3.org/2000/svg"
   xmlns="http://www.w3.org/2000/svg"
   xmlns:sodipodi="http://sodipodi.sourceforge.net/DTD/sodipodi-0.dtd"
   xmlns:inkscape="http://www.inkscape.org/namespaces/inkscape"
   viewBox="0 0 16 16"
   id="svg2"
   version="1.1"
   inkscape:version="0.91 r13725"
   sodipodi:docname="indicator-keyboard-Sk.svg">
  <metadata
     id="metadata13">
    <rdf:RDF>
      <cc:Work
         rdf:about="">
        <dc:format>image/svg+xml</dc:format>
        <dc:type
           rdf:resource="http://purl.org/dc/dcmitype/StillImage" />
      </cc:Work>
    </rdf:RDF>
  </metadata>
  <defs
     id="defs11" />
  <sodipodi:namedview
     pagecolor="#ffffff"
     bordercolor="#666666"
     borderopacity="1"
     objecttolerance="10"
     gridtolerance="10"
     guidetolerance="10"
     inkscape:pageopacity="0"
     inkscape:pageshadow="2"
     inkscape:window-width="640"
     inkscape:window-height="480"
     id="namedview9"
     showgrid="false"
     inkscape:zoom="14.75"
     inkscape:cx="8"
     inkscape:cy="8"
     inkscape:window-x="65"
     inkscape:window-y="24"
     inkscape:window-maximized="0"
     inkscape:current-layer="svg2" />
  <path
     style="fill:#353535;fill-opacity:1"
     d="M 1.5996094 0 C 0.71320937 2.9605947e-16 0 0.71320937 0 1.5996094 L 0 14.400391 C 2.9605947e-16 15.286791 0.71320937 16 1.5996094 16 L 14.400391 16 C 15.286791 16 16 15.286791 16 14.400391 L 16 1.5996094 C 16 0.71320937 15.286791 0 14.400391 0 L 1.5996094 0 z M 9.3886719 4.4414062 L 9.3886719 8.8691406 C 9.5386719 8.7251406 9.7065781 8.5590469 9.8925781 8.3730469 C 10.078578 8.1870469 10.265172 7.9986406 10.451172 7.8066406 C 10.643172 7.6146406 10.822234 7.4280469 10.990234 7.2480469 C 11.158234 7.0680469 11.301875 6.9094844 11.421875 6.7714844 L 12.125 6.7714844 C 11.987 6.9154844 11.83025 7.0778125 11.65625 7.2578125 C 11.48225 7.4378125 11.299422 7.6262187 11.107422 7.8242188 C 10.921422 8.0162188 10.734828 8.204625 10.548828 8.390625 L 10.044922 8.8945312 C 10.230922 9.0205312 10.428672 9.1828594 10.638672 9.3808594 C 10.854672 9.5788594 11.065531 9.7952972 11.269531 10.029297 C 11.479531 10.257297 11.675469 10.494234 11.855469 10.740234 C 12.041469 10.980234 12.196266 11.207828 12.322266 11.423828 L 11.628906 11.423828 C 11.484906 11.183828 11.320766 10.950656 11.134766 10.722656 C 10.954766 10.488656 10.762594 10.270406 10.558594 10.066406 C 10.360594 9.8624066 10.159078 9.6758125 9.9550781 9.5078125 C 9.7570781 9.3398125 9.5686719 9.1979844 9.3886719 9.0839844 L 9.3886719 11.423828 L 8.8027344 11.423828 L 8.8027344 4.5488281 L 9.3886719 4.4414062 z M 5.8554688 5.0527344 C 6.0234688 5.0527344 6.1876094 5.0638906 6.3496094 5.0878906 C 6.5116094 5.1118906 6.6627813 5.1455 6.8007812 5.1875 C 6.9447813 5.2235 7.0735 5.2664531 7.1875 5.3144531 C 7.3075 5.3624531 7.406375 5.4127969 7.484375 5.4667969 L 7.2675781 5.9804688 C 7.0935781 5.8604687 6.8809062 5.7634063 6.6289062 5.6914062 C 6.3829063 5.6194063 6.116125 5.5839844 5.828125 5.5839844 C 5.630125 5.5839844 5.4472969 5.6044844 5.2792969 5.6464844 C 5.1172969 5.6824844 4.9754687 5.7459375 4.8554688 5.8359375 C 4.7354687 5.9199375 4.6403594 6.0281563 4.5683594 6.1601562 C 4.5023594 6.2921563 4.46875 6.4507187 4.46875 6.6367188 C 4.46875 6.8287187 4.506125 6.9910469 4.578125 7.1230469 C 4.650125 7.2550469 4.749 7.3688437 4.875 7.4648438 C 5.007 7.5608438 5.1599844 7.6466094 5.3339844 7.7246094 C 5.5079844 7.8026094 5.6963906 7.88475 5.9003906 7.96875 C 6.1463906 8.07075 6.37775 8.1733906 6.59375 8.2753906 C 6.81575 8.3773906 7.0079219 8.4967656 7.1699219 8.6347656 C 7.3319219 8.7727656 7.4606406 8.9406719 7.5566406 9.1386719 C 7.6526406 9.3366719 7.7011719 9.5791875 7.7011719 9.8671875 C 7.7011719 10.431187 7.5014687 10.854719 7.1054688 11.136719 C 6.7154688 11.418719 6.1856719 11.558594 5.5136719 11.558594 C 5.2736719 11.558594 5.0534687 11.543672 4.8554688 11.513672 C 4.6574687 11.483672 4.4821719 11.44825 4.3261719 11.40625 C 4.1701719 11.35825 4.0376875 11.309719 3.9296875 11.261719 C 3.8216875 11.213719 3.7377344 11.172719 3.6777344 11.136719 L 3.875 10.605469 C 3.935 10.641469 4.0171406 10.684422 4.1191406 10.732422 C 4.2211406 10.780422 4.3405156 10.827 4.4785156 10.875 C 4.6165156 10.917 4.7732656 10.954375 4.9472656 10.984375 C 5.1212656 11.014375 5.3114844 11.029297 5.5214844 11.029297 C 6.0074844 11.029297 6.38625 10.941578 6.65625 10.767578 C 6.92625 10.587578 7.0605469 10.300297 7.0605469 9.9042969 C 7.0605469 9.6762969 7.0157812 9.4859375 6.9257812 9.3359375 C 6.8417812 9.1799375 6.7279844 9.0512188 6.5839844 8.9492188 C 6.4399844 8.8412187 6.2758437 8.7516875 6.0898438 8.6796875 C 5.9038437 8.6016875 5.7079063 8.5195469 5.5039062 8.4355469 C 5.2459063 8.3335469 5.0145469 8.2290937 4.8105469 8.1210938 C 4.6065469 8.0130937 4.4330625 7.8937188 4.2890625 7.7617188 C 4.1450625 7.6237188 4.0350312 7.4669687 3.9570312 7.2929688 C 3.8850312 7.1189687 3.8476562 6.9156406 3.8476562 6.6816406 C 3.8476562 6.1476406 4.0249063 5.7427969 4.3789062 5.4667969 C 4.7329063 5.1907969 5.2254687 5.0527344 5.8554688 5.0527344 z "
     id="path4" />
</svg>

<svg xmlns="http://www.w3.org/2000/svg" viewBox="0 0 16 16">
 <path d="m 1.6 0 c -0.886 0 -1.6 0.713 -1.6 1.6 l 0 12.801 c 0 0.886 0.713 1.6 1.6 1.6 l 12.801 0 c 0.886 0 1.6 -0.713 1.6 -1.6 l 0 -12.801 c 0 -0.886 -0.713 -1.6 -1.6 -1.6 l -12.801 0 z m 7.789 4.441 l 0 4.428 c 0.15 -0.144 0.318 -0.31 0.504 -0.496 c 0.186 -0.186 0.373 -0.374 0.559 -0.566 c 0.192 -0.192 0.371 -0.379 0.539 -0.559 c 0.168 -0.18 0.312 -0.339 0.432 -0.477 l 0.703 0 c -0.138 0.144 -0.295 0.306 -0.469 0.486 c -0.174 0.18 -0.357 0.368 -0.549 0.566 c -0.186 0.192 -0.373 0.38 -0.559 0.566 l -0.504 0.504 c 0.186 0.126 0.384 0.288 0.594 0.486 c 0.216 0.198 0.427 0.414 0.631 0.648 c 0.21 0.228 0.406 0.465 0.586 0.711 c 0.186 0.24 0.341 0.468 0.467 0.684 l -0.693 0 c -0.144 -0.24 -0.308 -0.473 -0.494 -0.701 c -0.18 -0.234 -0.372 -0.452 -0.576 -0.656 c -0.198 -0.204 -0.4 -0.391 -0.604 -0.559 c -0.198 -0.168 -0.386 -0.31 -0.566 -0.424 l 0 2.34 l -0.586 0 l 0 -6.875 l 0.586 -0.107 z m -3.533 0.611 c 0.168 0 0.332 0.011 0.494 0.035 c 0.162 0.024 0.313 0.058 0.451 0.1 c 0.144 0.036 0.273 0.079 0.387 0.127 c 0.12 0.048 0.219 0.098 0.297 0.152 l -0.217 0.514 c -0.174 -0.12 -0.387 -0.217 -0.639 -0.289 c -0.246 -0.072 -0.513 -0.107 -0.801 -0.107 c -0.198 0 -0.381 0.02 -0.549 0.063 c -0.162 0.036 -0.304 0.099 -0.424 0.189 c -0.12 0.084 -0.215 0.192 -0.287 0.324 c -0.066 0.132 -0.1 0.291 -0.1 0.477 c 0 0.192 0.037 0.354 0.109 0.486 c 0.072 0.132 0.171 0.246 0.297 0.342 c 0.132 0.096 0.285 0.182 0.459 0.26 c 0.174 0.078 0.362 0.16 0.566 0.244 c 0.246 0.102 0.477 0.205 0.693 0.307 c 0.222 0.102 0.414 0.221 0.576 0.359 c 0.162 0.138 0.291 0.306 0.387 0.504 c 0.096 0.198 0.145 0.441 0.145 0.729 c 0 0.564 -0.2 0.988 -0.596 1.27 c -0.39 0.282 -0.92 0.422 -1.592 0.422 c -0.24 0 -0.46 -0.015 -0.658 -0.045 c -0.198 -0.03 -0.373 -0.065 -0.529 -0.107 c -0.156 -0.048 -0.288 -0.097 -0.396 -0.145 c -0.108 -0.048 -0.192 -0.089 -0.252 -0.125 l 0.197 -0.531 c 0.06 0.036 0.142 0.079 0.244 0.127 c 0.102 0.048 0.221 0.095 0.359 0.143 c 0.138 0.042 0.295 0.079 0.469 0.109 c 0.174 0.03 0.364 0.045 0.574 0.045 c 0.486 0 0.865 -0.088 1.135 -0.262 c 0.27 -0.18 0.404 -0.467 0.404 -0.863 c 0 -0.228 -0.045 -0.418 -0.135 -0.568 c -0.084 -0.156 -0.198 -0.285 -0.342 -0.387 c -0.144 -0.108 -0.308 -0.198 -0.494 -0.27 c -0.186 -0.078 -0.382 -0.16 -0.586 -0.244 c -0.258 -0.102 -0.489 -0.206 -0.693 -0.314 c -0.204 -0.108 -0.377 -0.227 -0.521 -0.359 c -0.144 -0.138 -0.254 -0.295 -0.332 -0.469 c -0.072 -0.174 -0.109 -0.377 -0.109 -0.611 c 0 -0.534 0.177 -0.939 0.531 -1.215 c 0.354 -0.276 0.847 -0.414 1.477 -0.414 z" style="fill:#353535;fill-opacity:1"/>
</svg>
